X:1
T:Green Gravel
M:3/4
L:1/4
K:F
 C| F A C| F A B| c BG/2-B/2| A2 A/2B/2| c B G| B AF/2-A/2| A/2 G3/2E/2-G/2|\
 F2||
